X:1
T:Himno Antioqueño
T:Música: Gonzalo Vidal Letra:   Epifanio Mejía
T:Himno Antioqueño
T:CORO:
T:Transcripción: Alberto Betancourt
T:Transcripción para piano: Alberto Betancourt
T:Transcripción para piano: Alberto Betancourt
T:Transcripción para piano: Alberto Betancourt
T:Transcripción para piano: Alberto Betancourt
T:Transcripción para piano: Alberto Betancourt
T:Transcripción para piano: Alberto Betancourt
C:Gonzalo Vidal
Z:Transcripción para piano: Alberto Betancourt
%%score { ( 1 3 ) | 2 }
L:1/8
Q:1/4=108
M:4/4
K:C
V:1 treble nm="MusicXML Part"
V:3 treble 
V:2 bass 
V:1
|:"^Marcial" [FG]2 (3[FA][FA][FA] [FG]2 [Fc]2 | [FB]6 z2 || c2 B>A G2 E>F | G4 G2 A>B | %4
w: ||Oh! Li- ber- tad que per-|fu- mas Las mon-|
w: ||||
 c2 G2 F2 E2 | E4 D2 z2 | C2 D>E ^F2 G>A | (B4 G)GAB | [Ed]4 [Ec]3 [D^F] | [CA]4 [B,G]2 z2 | %10
w: ta- ñas de mi|tie- rra|De- ja que'as- pi- ren mis|hi- jos Tus o- lo-|ro- sas e-|sen- cias|
w: ||||||
 c2 B>A G2 E>F | [DG]4 [DG]2 ^C>D | E2 F2 G2 A2 | [A,A]4 [A,D]2 z2 | d2 c>B c2 B>A | %15
w: Oh! Li- ber- tad que per-|fu- mas Las mon-|ta- ñas de mi|tie- rra|De- ja que'as- pi- ren mis|
w: |||||
 [Ec]2 [EG]2 z [EG][DF][CE] | [EG]4 [DF]3 [DB] | [Fd]4 [Ec]2 z2 | [Ac]4 [GB]3 [FA] | [EG]6 z2 | %20
w: hi- jos tus o- lo-|ro- sas e-|sen- cias|Oh! Li- ber-|tad|
w: |||||
 [A,F]4 [G,E]3 [F,D] | [E,C]8- | [E,C]2 [Ec]2 z4!fine! ||[K:F]"^ESTROFAS:" B3 A GF E>D | %24
w: Oh1 Li- ber-|.tad.|_ _|1:A- mo'al sol por- que'an- da|
w: |||2:For- jen dés- po- tas ti-|
 [A,F]4 [A,C]2 z2 | F2 G>A B2 c>d | [Ac]4 [FA]2 z2 | c2 =B>A ^G2 ^F>G | [CA]4 [CE]2 z2 | %29
w: li- bre|So- bre la'a- zu- ad- da'es-|fe- ra|Al hu- ra- cán por que|sil- va|
w: ra- nos|Lar- gas y ru- das ca-|de- nas|Pa- ra'el es- cla- vo que'hu-|mil- de|
 F2 A>A G2 =B>B | [Fd]4 [Ec]2 z B ||1 B3 A G2 A>B | [A,A]4 [A,F]2 [Cc]>[Cc] | c3 B A2 (Bc) | %34
w: Con li- ber- tad en las|sel- vas. El|Ha- cha que mis ma-|yo- res Me de-|ja ron por he- *|
w: Sus piés, de- ro- di- llas|be- sa. *||||
 B4 G2 z G | e3 d cBAG | d2 c4 z2 | C2 D>E [DB]2 [CA]>[CA] | [B,G]4 [A,F]2 z2 :|2 B2 B A G2 A>B || %40
w: ren- cia La|quie- ro por que a sus|gol- pes|Li- bres a- cen- tos re-|sue- nan.|* que na- * * *|
w: |||||Yo * * cí'al- ti vo'y|
 [A,A]4 [A,F]2 z2 | c2 c B A2 (Bc) | B4 G2 z2 | e3 d cBAG | d2 c4 z2 | C2 D>E [DB]2 [CA]>[CA] | %46
w: ||||||
w: li- bre|So- bre'u- na sie- rra'An- tio-|que- ña|Lle- vo'el hie- rro'en tre mis|ma- nos|Por que'en el cue- llo me|
 [B,G]4 [A,F]2 z2!D.C.! |] %47
w: |
w: pe- sa.|
V:2
|:"G7" [B,D]2 [CD]2 [B,D]2 [A,D]2 | [G,D]A,B,A, G,F,E,D, ||"C" [C,G,]4 [C,G,]4 | %3
 [C,G,]2 (3[C,G,][C,G,][C,G,] [C,G,]2 [C,G,]2 | [C,E,G,]4 [C,E,G,]4 | %5
"G7/B" [B,,F,G,]2 (3[B,,F,G,][B,,F,G,][B,,F,G,]"E/B" [B,,E,^G,]2 [B,,E,G,]2 | %6
"Am" [A,,E,A,]4"D7" [D,C]4 |"G" [G,B,]2 (3[G,B,][G,B,][G,B,] [G,B,]2 [G,B,]2 | %8
"E7" z E,^F,^G,"Am7" A,=G,F,E, |"D7" z D,E,^F,"G7" G,=F,E,D, |"C" [C,G,]4 [C,G,]4 | %11
"Em7b5/Bb" [_B,,E,G,]2 (3[B,,E,G,][B,,E,G,][B,,E,G,] [B,,E,G,]2 [B,,E,G,]2 | %12
"A7" [A,,G,]4 [A,,G,]4 |"Dm" [D,F,]2 (3[D,F,][D,F,][D,F,] [D,F,]2 [D,F,]2 | %14
"^F6" [F,D]4"^F#0" [^F,^D]4 |"C/G" [G,C]2 [G,C]2 z4 |"A7" z A,B,^C"Dm7" D=CB,A, | %17
"G7" z G,A,B,"C" CC,D,E, |"F" F,E,F,G,"G7" A,G,A,B, |"C" CG,^F,G, A,G,E,C, | %20
"F" F,,E,,F,,G,,"G7" A,,G,,A,,B,, |"C" C,G,,^F,,G,, A,,G,,E,,D,, | C,,2 [C,G,]2 [C,,C,]2 z2 || %23
[K:F]"C7/E" [E,,C,]4 [E,,C,]4 |"F" [F,,C,]2 [F,,C,]2 [F,,C,]2 [F,,C,]2 | %25
"Bb/F" [F,,B,,]4 [F,,B,,]4 |"F" [F,,C,]2 [F,,C,]2 [F,,C,]2 [F,,C,]2 | %27
"C/E" [E,,C,]4"E7" [E,,=B,,]4 |"Am" [A,,E,]2 [A,,E,]2 [A,,E,]2 [A,,E,]2 | %29
"Dm7" [D,F,]4"G7" [G,,F,]4 | z G,,A,,=B,,"C" C,A,,G,,F,, ||1 %31
"C7/E" [E,,C,]2 [E,,C,]2 [E,,C,]2 [E,,C,]2 |"F" [F,,C,]2 [F,,C,]2 [F,,C,]2 [F,,C,]2 | %33
"D7" [^F,,D,]2 [F,,D,]2 [F,,D,]2 [F,,D,]2 |"Gm" [G,,D,]2 [G,,D,]2 [G,,D,]2 [G,,D,]2 | %35
"Gm/Bb" [B,,D,]2 [B,,D,]2 [B,,D,]2 [B,,D,]2 |"F/C" [C,A,]2 [C,A,]2 [C,A,]2 [C,A,]2 | %37
"C7" [C,E,]2 F,>G, C,4 | z C,,D,,E,,"F" F,,2 z2 :|2"C7/E" [E,,C,]2 [E,,C,]2 [E,,C,]2 [E,,C,]2 || %40
"F" [F,,C,]2 [F,,C,]2 [F,,C,]2 [F,,C,]2 |"D7" [^F,,D,]2 [F,,D,]2 [F,,D,]2 [F,,D,]2 | %42
"Gm" [G,,D,]2 [G,,D,]2 [G,,D,]2 [G,,D,]2 |"Gm/Bb" [B,,D,]2 [B,,D,]2 [B,,D,]2 [B,,D,]2 | %44
"F/C" [C,A,]2 [C,A,]2 [C,A,]2 [C,A,]2 |"C7" [C,E,]2 F,>G, C,4 | z C,,D,,E,,"F" F,,2 z2 |] %47
V:3
|: x8 | x8 || E4 E2 C>D | E4 E2 z2 | x8 | x8 | x8 | D8 | x8 | x8 | E4 E2 C>D | x8 | ^C4 C4 | x8 | %14
 A4 A4 | x8 | x8 | x8 | x8 | x8 | x8 | x8 | x8 ||[K:F] B,4 B,4 | x8 | D4 D4 | x8 | E4 D4 | x8 | %29
 D2 C2 =B,2 D2 | x8 ||1 B,4 B,4 | x8 | D4 D4 | D4 B,2 z2 | G6 z2 | F6 z2 | x8 | x8 :|2 B,4 B,4 || %40
 x8 | D4 D4 | D4 B,2 z2 | G6 z2 | F6 z2 | x8 | x8 |] %47

